svg/Pictogram/pictograms-aem-0055-laser_beam_hazard.svg

<?xml version="1.0" encoding="ISO-8859-1" standalone="yes"?>
<svg height="304.014" width="304.015">
  <metadata>
    <rdf:RDF xmlns:cc="http://web.resource.org/cc/" xmlns:dc="http://purl.org/dc/elements/1.1/" xmlns:rdf="http://www.w3.org/1999/02/22-rdf-syntax-ns#">
      <cc:Work rdf:about="">
        <dc:title></dc:title>
        <dc:description></dc:description>
        <dc:subject>
          <rdf:Bag>
            <rdf:li></rdf:li>
          </rdf:Bag>
        </dc:subject>
        <dc:publisher>
          <cc:Agent rdf:about="http://www.unece.org/trans/danger/publi/ghs/pictograms.html">
            <dc:title>Source: UNECE GHS of Classification and Labeling of Chemicals, Source: AEM Pictorial Database, Source: AEM Pictorial Database, Source: AEM Pictorial Database, Source: AEM Pictorial Database</dc:title>
          </cc:Agent>
        </dc:publisher>
        <dc:creator>
          <cc:Agent>
            <dc:title></dc:title>
          </cc:Agent>
        </dc:creator>
        <dc:rights>
          <cc:Agent>
            <dc:title></dc:title>
          </cc:Agent>
        </dc:rights>
        <dc:date></dc:date>
        <dc:format>image/svg+xml</dc:format>
        <dc:type rdf:resource="http://purl.org/dc/dcmitype/StillImage"/>
        <cc:license rdf:resource="http://en.wikipedia.org/wiki/Public_domain"/>
        <dc:language>en</dc:language>
      </cc:Work>
    </rdf:RDF>
  </metadata>
  <defs><marker id="ArrowEnd" markerHeight="3" markerUnits="strokeWidth" markerWidth="4" orient="auto" refX="0" refY="5" viewBox="0 0 10 10"><path d="M 0 0 L 10 5 L 0 10 z"/></marker><marker id="ArrowStart" markerHeight="3" markerUnits="strokeWidth" markerWidth="4" orient="auto" refX="10" refY="5" viewBox="0 0 10 10"><path d="M 10 0 L 0 5 L 10 10 z"/></marker> </defs>
  <g id="g2958" transform="matrix(1.3532768,0,0,1.3532781,-53.207834,-52.192858)">
    <path d="M 150.058 140.721L 167.003 136.182L 168.397 141.385L 151.452 145.924C 151.659 147.045 151.808 148.178 151.897 149.315L 252.991 149.315L 252.991 154.702L 151.897 154.702C 151.808 155.838 151.659 156.967 151.452 158.092L 168.397 162.631L 167.003 167.834L 150.058 163.291C 149.675 164.37 149.237 165.42 148.749 166.452L 177.995 183.338L 175.3 187.998L 146.058 171.116C 145.409 172.053 144.714 172.959 143.976 173.831L 156.378 186.233L 152.569 190.041L 140.167 177.635C 139.3 178.377 138.394 179.073 137.452 179.717L 154.339 208.963L 149.675 211.659L 132.788 182.413C 131.761 182.901 130.702 183.338 129.632 183.721L 134.171 200.663L 128.968 202.057L 124.429 185.116C 123.308 185.323 122.175 185.471 121.038 185.561L 121.038 219.331L 115.651 219.331L 115.651 185.561C 114.515 185.471 113.382 185.323 112.261 185.116L 107.722 202.057L 102.519 200.663L 107.058 183.721C 105.983 183.338 104.929 182.901 103.901 182.413L 87.0154 211.659L 82.3514 208.963L 99.2334 179.717C 98.2964 179.073 97.3904 178.377 96.5224 177.635L 84.1204 190.041L 80.3124 186.233L 92.7144 173.831C 91.9764 172.959 91.2804 172.053 90.6324 171.116L 61.3864 187.998L 58.6944 183.338L 87.9404 166.452C 87.4484 165.42 87.0154 164.37 86.6324 163.291L 69.6874 167.834L 68.2964 162.631L 85.2374 158.092C 85.0304 156.967 84.8824 155.838 84.7924 154.702L 51.0224 154.702L 51.0224 149.315L 84.7924 149.315C 84.8824 148.178 85.0304 147.045 85.2374 145.924L 68.2964 141.385L 69.6874 136.182L 86.6324 140.721C 87.0154 139.647 87.4484 138.592 87.9404 137.561L 58.6944 120.678L 61.3864 116.01L 90.6324 132.897C 91.2804 131.959 91.9764 131.053 92.7144 130.182L 80.3124 117.78L 84.1204 113.971L 96.5224 126.377C 97.3904 125.635 98.2964 124.94 99.2334 124.295L 82.3514 95.0494L 87.0154 92.3584L 103.901 121.6C 104.929 121.112 105.983 120.674 107.058 120.291L 102.519 103.35L 107.722 101.956L 112.261 118.897C 113.382 118.694 114.515 118.545 115.651 118.452L 115.651 84.6824L 121.038 84.6824L 121.038 118.452C 122.175 118.545 123.308 118.694 124.429 118.897L 128.968 101.956L 134.171 103.35L 129.632 120.291C 130.702 120.674 131.761 121.112 132.788 121.6L 149.675 92.3584L 154.339 95.0494L 137.452 124.295C 138.394 124.94 139.3 125.635 140.167 126.377L 152.569 113.971L 156.378 117.78L 143.976 130.182C 144.714 131.053 145.409 131.959 146.058 132.897L 175.304 116.01L 177.995 120.678L 148.749 137.561C 149.237 138.592 149.675 139.647 150.058 140.721" style="stroke:none; fill-rule:evenodd; fill:#000000"/>
    <path d="M 29.6204 265.393L 2.62042 265.393" style="stroke:#000000; stroke-width:0.5; fill:none"/>
    <path d="M 38.6204 274.393L 38.6204 301.393" style="stroke:#000000; stroke-width:0.5; fill:none"/>
    <path d="M 29.6204 38.6204L 2.62042 38.6204" style="stroke:#000000; stroke-width:0.5; fill:none"/>
    <path d="M 38.6204 29.6204L 38.6204 2.62042" style="stroke:#000000; stroke-width:0.5; fill:none"/>
    <path d="M 274.394 38.6204L 301.394 38.6204" style="stroke:#000000; stroke-width:0.5; fill:none"/>
    <path d="M 265.394 29.6204L 265.394 2.62042" style="stroke:#000000; stroke-width:0.5; fill:none"/>
    <path d="M 274.394 265.393L 301.394 265.393" style="stroke:#000000; stroke-width:0.5; fill:none"/>
    <path d="M 265.394 274.393L 265.394 301.393" style="stroke:#000000; stroke-width:0.5; fill:none"/>
  </g>
</svg>

<svg viewBox="0 0 304.01 304.01"><g transform="matrix(1.35328 0 0 1.35328-53.21-52.19)"><path d="m150.06 140.72l16.945-4.539 1.394 5.203-16.945 4.539c.207 1.121.356 2.254.445 3.391h101.09v5.387h-101.09c-.089 1.136-.238 2.265-.445 3.39l16.945 4.539-1.394 5.203-16.945-4.543c-.383 1.079-.821 2.129-1.309 3.161l29.25 16.886-2.695 4.66-29.24-16.882c-.649.937-1.344 1.843-2.082 2.715l12.402 12.402-3.809 3.808-12.402-12.406c-.867.742-1.773 1.438-2.715 2.082l16.887 29.25-4.664 2.696-16.887-29.25c-1.027.488-2.086.925-3.156 1.308l4.539 16.942-5.203 1.394-4.539-16.941c-1.121.207-2.254.355-3.391.445v33.77h-5.387v-33.77c-1.136-.09-2.269-.238-3.39-.445l-4.539 16.941-5.203-1.394 4.539-16.942c-1.075-.383-2.129-.82-3.157-1.308l-16.886 29.25-4.664-2.696 16.882-29.25c-.937-.644-1.843-1.34-2.711-2.082l-12.402 12.406-3.808-3.808 12.402-12.402c-.738-.872-1.434-1.778-2.082-2.715l-29.25 16.882-2.692-4.66 29.25-16.886c-.492-1.032-.925-2.082-1.308-3.161l-16.945 4.543-1.391-5.203 16.941-4.539c-.207-1.125-.355-2.254-.445-3.39h-33.77v-5.387h33.77c.09-1.137.238-2.27.445-3.391l-16.941-4.539 1.391-5.203 16.945 4.539c.383-1.074.816-2.129 1.308-3.16l-29.25-16.883 2.692-4.668 29.25 16.887c.648-.938 1.344-1.844 2.082-2.715l-12.402-12.402 3.808-3.809 12.402 12.406c.868-.742 1.774-1.437 2.711-2.082l-16.882-29.25 4.664-2.691 16.886 29.24c1.028-.488 2.082-.926 3.157-1.309l-4.539-16.941 5.203-1.394 4.539 16.941c1.121-.203 2.254-.352 3.39-.445v-33.77h5.387v33.77c1.137.093 2.27.242 3.391.445l4.539-16.941 5.203 1.394-4.539 16.941c1.07.383 2.129.821 3.156 1.309l16.887-29.24 4.664 2.691-16.887 29.25c.942.645 1.848 1.34 2.715 2.082l12.402-12.406 3.809 3.809-12.402 12.402c.738.871 1.433 1.777 2.082 2.715l29.25-16.887 2.691 4.668-29.25 16.883c.488 1.031.926 2.086 1.309 3.16" fill-rule="evenodd"/></g></svg>
